X: 10252
T: The ROSE TREE
Q: "Moderately"
%R: reel, march
B: "Edinburgh Repository of Music" v.1 p.25 #2
F: http://digital.nls.uk/special-collections-of-printed-music/pageturner.cfm?id=87776133
Z: 2015 John Chambers <jc:trillian.mit.edu>
M: C
L: 1/16
K: C
e>d |\
c3A G2E2 G4 G2A2 | c3d {e}d2cd e2d2d2ed |\
{Bd}c3A G2E2 G4 G2A2 | Tc3d {e}d2cd e2c2c2 :|
|: Tc>d |\
e2d2e2f2 {ef}g4 Tf2e2 | da3a3g a2d2 Hd2 (g/f/e/d/) |\
Tc3A G2E2 TG4 G2A2 | Tc3d {e}d2cd e2c2Tc2 :|

%%sep 2 1 500
%%sep 1 1 500

